source/img/icon-2.svg

<svg width="90" height="102" fill="none" xmlns="http://www.w3.org/2000/svg"><path d="M49.85 79.8c19.5-13.8 39.6-30.75 39.6-50.25S75.65.15 52.85.15C39.5.15 25.4 4.5 11.9 12.6l8.4 21.45c9.9-5.1 19.2-7.5 24.6-7.5 7.5 0 9.6 3.6 9.6 7.5 0 13.5-26.25 30.9-51.45 48.6L.8 102h84.45l3.6-29.4h-23.7l-1.05 7.95H49.85v-.75z" fill="#00A9CF"/></svg>

<svg width="90" height="102" viewBox="0 0 90 102" fill="none" xmlns="http://www.w3.org/2000/svg">
<path d="M49.85 79.8C69.35 66 89.45 49.05 89.45 29.55C89.45 10.05 75.65 0.149997 52.85 0.149997C39.5 0.149997 25.4 4.49999 11.9 12.6L20.3 34.05C30.2 28.95 39.5 26.55 44.9 26.55C52.4 26.55 54.5 30.15 54.5 34.05C54.5 47.55 28.25 64.95 3.05 82.65L0.8 102H85.25L88.85 72.6H65.15L64.1 80.55H49.85V79.8Z" fill="#00A9CF"/>
</svg>
